X: 1
T: Miss McPherson Grant of Ballindalloch
T: the Nurseryman
C: William Marshall
R: jig
B: RSCDS 35-7
Z: 1997 by John Chambers <jc:trillian.mit.edu>
M: 6/8
L: 1/8
K: A
E \
| "A"E2A A2F | "E7"GAB Bcd | "A"c2E "F#m"AGA | "Bm"B3 "E7"E3 \
| "A"E2e e2c | "Bm"dcd "E7"Bcd | "A"cde "D"fed | "A"cBA "E7"GFE |
| "A"E2A A2F | "E7"GAB Bcd | "A"c2E "F#m"AGA | "Bm"B3 "E7"E3 \
| "A"E2e e2c | "Bm"dcd "E7"Bcd | "A"cBA "E7"EFG | "A"A3- A2 |]
E \
| "A"C2E "A7"A2=G | "D"FEF D2F | "Bm"d2c "B7"BcA | "E"G3 E2E \
| "D"FGA Bcd | "A"cde fga | "E"gfe "B7"Bc^d | "E"e3- e2z |
| "D"f2[AD] fed | "A"e2[cA] ecA | "D"FGA "B7"BcA | "E"G3 E3 \
| "D"F2d "A"E2c | "E7"D2B "A"C2e | "A"cBA "E7"EFG | "A"A3- A2 |]

%%sep 1 1 500

